X: 13
T: Off She Goes
R: jig
M: 6/8
L: 1/8
K: Dmaj
|: A |F2 A G2 B | ABc d3 | F2 A G2 B | AFD E3 |
F2 A G2 B | ABc d2 e | f2 d g2 f | edc d2 :|
|: g |faf d2 f | ege c2 g | faf d2 f | edc d2 g |
faf d2 f | ege c2 e | d2 f a2 f | gec d2 :|


Tune 1133	Setting 24473

